img/company/viega.svg

<svg width="69" height="58" viewBox="0 0 69 58" fill="none" xmlns="http://www.w3.org/2000/svg">
<path d="M0 32.7677H69V57.9999H0V32.7677Z" fill="#24242E"/>
<path d="M43.3577 13.4166C42.1152 13.4166 41.4404 14.484 41.4404 16.512C41.4404 19.0096 42.2866 20.0449 43.5398 20.0449C44.5466 20.0342 45.0607 19.618 45.532 19.0202V14.452C45.0393 13.7795 44.2896 13.4166 43.3577 13.4166Z" fill="#24242E"/>
<path d="M31.126 13.1819C29.9585 13.1819 29.2301 14.1318 29.1123 15.3486H33.3217C33.2253 14.2599 32.5719 13.1819 31.126 13.1819Z" fill="#24242E"/>
<path d="M54.1118 18.7108C54.1118 19.5646 54.6045 20.3225 55.9755 20.3225C57.0252 20.3331 57.8714 19.7995 58.2141 19.2231V17.6968C57.6571 17.3552 57.1109 17.1844 55.9755 17.1844C54.7652 17.1844 54.1118 17.7395 54.1118 18.7108Z" fill="#24242E"/>
<path d="M0 0V30.2061H69V0H0ZM13.7957 22.7773H10.4753L6.0624 10.6522H9.60773L11.4072 16.2665C11.7071 17.1951 12.0391 18.3478 12.1784 18.9242C12.3176 18.3265 12.6496 17.2164 12.9495 16.2665L14.749 10.6522H18.2086L13.7957 22.7773ZM23.532 22.7773H20.2116V10.6522H23.532V22.7773ZM21.8611 8.81634C20.3294 8.81634 19.0548 7.54619 19.0548 6.04122C19.0548 4.52558 20.3294 3.2661 21.8611 3.2661C23.3927 3.2661 24.6673 4.53625 24.6673 6.04122C24.6673 7.55686 23.3927 8.81634 21.8611 8.81634ZM36.4065 17.7501H29.0695C29.6694 21.5392 33.9752 20.1943 34.9713 19.3725L35.0248 19.3831L35.5175 21.8167C34.7356 22.4144 33.3539 23.0335 31.5866 23.0335C28.0627 23.0335 25.8134 20.5572 25.8134 16.7254C25.8134 13.011 28.1698 10.396 31.276 10.396C34.5643 10.4067 36.4494 13.2672 36.4494 16.7361C36.4494 17.1951 36.428 17.5259 36.4065 17.7501ZM41.0658 27.5484L40.5624 24.8907L40.5945 24.8587C43.0688 24.8587 45.7679 24.9334 45.5858 21.9982C44.9753 22.5318 44.1613 23.0121 42.9938 23.0121C40.3803 23.0121 38.2274 21.0696 38.2274 16.544C38.2274 12.915 39.9519 10.3747 42.9938 10.3747C44.0649 10.3747 45.0075 10.7909 45.5858 11.3246L45.5966 10.6308H48.8098L48.7991 20.7067C48.9812 26.5558 45.4038 27.6231 41.0658 27.5484ZM61.4595 22.82H58.2676L58.2355 22.0088C57.6464 22.6066 56.6288 23.0762 55.4828 23.0762C53.1906 23.0762 50.9092 21.6886 50.9092 18.7534C50.9092 16.0743 53.1049 14.7295 55.8791 14.7295C57.0037 14.7295 57.7214 14.9643 58.2355 15.2098V14.6121C58.2355 13.2245 56.4039 12.0611 52.7836 13.9183L52.7408 13.9076L52.2802 11.4741C54.3153 10.1612 61.4595 9.05116 61.4595 14.8469V22.82Z" fill="#24242E"/>
</svg>

<svg width="69" height="58" fill="none" xmlns="http://www.w3.org/2000/svg"><path d="M0 32.768h69V58H0V32.768zM43.358 13.417c-1.243 0-1.918 1.067-1.918 3.095 0 2.498.847 3.533 2.1 3.533 1.007-.01 1.52-.427 1.992-1.025v-4.568c-.493-.672-1.242-1.035-2.174-1.035zM31.126 13.182c-1.168 0-1.896.95-2.014 2.167h4.21c-.097-1.09-.75-2.167-2.196-2.167zM54.112 18.71c0 .855.492 1.613 1.863 1.613 1.05.01 1.896-.524 2.24-1.1v-1.526c-.558-.342-1.104-.513-2.24-.513-1.21 0-1.863.555-1.863 1.527z" fill="#24242E"/><path d="M0 0v30.206h69V0H0zm13.796 22.777h-3.32L6.061 10.652h3.546l1.8 5.615c.3.928.631 2.08.77 2.657.14-.598.472-1.708.771-2.657l1.8-5.615h3.46l-4.413 12.125zm9.736 0h-3.32V10.652h3.32v12.125zm-1.67-13.96c-1.533 0-2.807-1.27-2.807-2.776 0-1.515 1.274-2.775 2.806-2.775s2.806 1.27 2.806 2.775c0 1.516-1.274 2.775-2.806 2.775zm14.545 8.933H29.07c.6 3.79 4.905 2.444 5.901 1.622l.054.011.492 2.434c-.781.597-2.163 1.216-3.93 1.216-3.524 0-5.774-2.476-5.774-6.308 0-3.714 2.357-6.329 5.463-6.329 3.288.01 5.173 2.871 5.173 6.34 0 .46-.021.79-.042 1.014zm4.659 9.798-.504-2.657.032-.032c2.475 0 5.174.074 4.992-2.86-.61.533-1.425 1.013-2.592 1.013-2.614 0-4.767-1.942-4.767-6.468 0-3.629 1.725-6.17 4.767-6.17 1.07 0 2.014.417 2.592.95l.01-.693h3.214l-.01 10.076c.181 5.849-3.396 6.916-7.734 6.841zm20.393-4.728h-3.191l-.032-.811c-.59.598-1.607 1.067-2.753 1.067-2.292 0-4.574-1.387-4.574-4.323 0-2.679 2.196-4.024 4.97-4.024 1.125 0 1.842.235 2.357.48v-.597c0-1.387-1.832-2.55-5.452-.694l-.043-.01-.46-2.434c2.034-1.313 9.178-2.423 9.178 3.373v7.973z" fill="#24242E"/></svg>
